X:723
T:Brudmarsch från Nås finnmark
R:Marsch
S:Herman Strömberg
S:Kalle Almlöf
S:Fafner
S:Holpers Erik
Z:Transkription gjord av Linus efter Fafners [[http://www.youtube.com/watch?v=9ndMT2Wm1j8|youtubevideo]], 29 okt -08
O:Nås finnmark, Dalarna
H:Utlärd av Kalle Almlöf till Fafner. Fafner menar i videokommentaren att Kalle lärde den av Herman Strömberg (1882-1967) som troligen lärde av Lejsme-Per (1827-1907).
N:Ingår även i kategorin [[Tonarter/Dm]].
M:4/4
L:1/8
K:DDor
a2 |: a^g ga a^cde | f2fg f2ed | egag fed^c | d4- d2f2 |
f2edcBAB | c2cd e2dc | c2cd BABc | A6 a2 :|
|: ga ag f2 ed | ed^ce d2 g2 | a_bag fed^c| ^c6 ec | 
Acde fgag | f2 fg f2 ed | dfag fed^c |1 d6 a2 :|2 d6 |]
(:musicend:)

Nedteckning efter länkade videon påbörjad. Rättelser tas tacksamt emot och jag har inget emot att det fortsätts
om bara wikins versionshantering kan reda ut eventuellt dubbelarbete.
%green% Rättade några förtecken. Finns det någon anledning till att första tonen i sista takten på rad tre står som Ciss istället för E? Är E-tonen bara en stämma? /Nils

Låten spelas varje år vid uppsättningen av Ingmarsspelen. Den spelas långsamt och med specifika drillar. Rad tre: takt 2 spelas tonen C (inte Ciss som det står ovan) och i takt 4 är den sista tonen C (inte Ciss som det står ovan). Jag har lärt mig låten av Holpers Erik, Nås (ledare för Nås spelmanslag i många år). /Johanna
(:music:)
